Obsidian/actions/24s/svn-update.svg

<svg height="24" viewBox="0 0 24 24" width="24" xmlns="http://www.w3.org/2000/svg"><path d="m3.5 1c-1.3807 0-2.5 1.1193-2.5 2.5.00013 1.1879.83612 2.2116187 2 2.4492188v4.0039062c-1.1632.23742-1.9989 1.260066-2 2.447266 0 1.3807 1.1193 2.5 2.5 2.5s2.5-1.1193 2.5-2.5c-.00013-1.1879-.83612-2.211619-2-2.4492191v-4.0058594c.38986-.0782.7554563-.2482738 1.0664062-.4960937l1.2128907.9082031c-.18265.35323-.2783969.7449081-.2792969 1.1425781 0 1.3807 1.1193 2.5 2.5 2.5.56529 0 1.0812-.1953588 1.5-.5117188v2.5117188h-2l3.28125 2.8125.21875.1875.21875-.1875 3.28125-2.8125h-2v-3h-2.511719c.31636-.41877.511719-.93471.511719-1.5 0-1.3807-1.1193-2.5-2.5-2.5-.59196.001-1.1643344.2121731-1.6152344.5957031l-1.1933594-.8925781c.20243-.3687.3085738-.782535.3085938-1.203125 0-1.3807-1.1193-2.5-2.5-2.5z" fill="#bebebe" transform="translate(4 4)"/></svg>

<svg xmlns="http://www.w3.org/2000/svg" width="24" height="24" viewBox="0 0 24 24">
 <defs>
  <style id="current-color-scheme" type="text/css">
   .ColorScheme-Text { color:#bebebe; } .ColorScheme-Highlight { color:#4285f4; }
  </style>
 </defs>
 <path style="fill:currentColor" class="ColorScheme-Text" d="M 3.5 1 C 2.1193 1 1 2.1193 1 3.5 C 1.00013 4.6879 1.83612 5.7116187 3 5.9492188 L 3 9.953125 C 1.8368 10.190545 1.0011 11.213191 1 12.400391 C 1 13.781091 2.1193 14.900391 3.5 14.900391 C 4.8807 14.900391 6 13.781091 6 12.400391 C 5.99987 11.212491 5.16388 10.188772 4 9.9511719 L 4 5.9453125 C 4.38986 5.8671125 4.7554563 5.6970387 5.0664062 5.4492188 L 6.2792969 6.3574219 C 6.0966469 6.7106519 6.0009 7.10233 6 7.5 C 6 8.8807 7.1193 10 8.5 10 C 9.06529 10 9.5812 9.8046412 10 9.4882812 L 10 12 L 8 12 L 11.28125 14.8125 L 11.5 15 L 11.71875 14.8125 L 15 12 L 13 12 L 13 9 L 10.488281 9 C 10.804641 8.58123 11 8.06529 11 7.5 C 11 6.1193 9.8807 5 8.5 5 C 7.90804 5.001 7.3356656 5.2121731 6.8847656 5.5957031 L 5.6914062 4.703125 C 5.8938362 4.334425 5.99998 3.92059 6 3.5 C 6 2.1193 4.8807 1 3.5 1 z" transform="translate(4 4)"/>
</svg>
